24x24/actions/gtk-convert.svg

<svg xmlns="http://www.w3.org/2000/svg" viewBox="0 0 24 24">
  <defs id="defs3051">
    <style type="text/css" id="current-color-scheme">
      .ColorScheme-Text {
        color:#5d656b;
      }
      </style>
  </defs>
 <path style="fill:currentColor;fill-opacity:1;stroke:none" 
     d="M 12 4 A 7.9999981 8.000001 0 0 0 4.2597656 10 L 5.2949219 10 A 7 7 0 0 1 12 5 A 7 7 0 0 1 18.308594 9 L 14.699219 9 L 14.699219 10 L 18.701172 10 L 19.699219 10 L 19.699219 9.8867188 L 19.699219 9 L 19.699219 5 L 18.699219 5 L 18.699219 7.65625 A 7.9999981 8.000001 0 0 0 12 4 z M 4.3007812 14 L 4.3007812 14.113281 L 4.3007812 15 L 4.3007812 19 L 5.3007812 19 L 5.3007812 16.34375 A 7.9999981 8.000001 0 0 0 12 20 A 7.9999981 8.000001 0 0 0 19.740234 14 L 18.705078 14 A 7 7 0 0 1 12 19 A 7 7 0 0 1 5.6914062 15 L 9.3007812 15 L 9.3007812 14 L 5.3007812 14 L 5.2988281 14 L 4.3007812 14 z "
     class="ColorScheme-Text"
     />
</svg>

<svg xmlns="http://www.w3.org/2000/svg" viewBox="0 0 24 24"><path style="fill:currentColor;fill-opacity:1;stroke:none;color:#5d656b" d="M12 4a8 8 0 0 0-7.74 6h1.035A7 7 0 0 1 12 5a7 7 0 0 1 6.309 4h-3.61v1h5V5h-1v2.656A8 8 0 0 0 12 4zM4.3 14v5h1v-2.656A8 8 0 0 0 12 20a8 8 0 0 0 7.74-6h-1.035A7 7 0 0 1 12 19a7 7 0 0 1-6.309-4h3.61v-1h-5z"/></svg>
